X: 35408
T: Roumen Sirakov's Daichevo
R: slip jig
M: 9/8
K: Adorian
|:de ~c2 c2 ~c2B|cd ~B2 BG B2G|FG A2 A2 ~B2G|1 ~A2 A2 Ac d2d:|2 ~A2 A2 A2 A2E||
|:FG A2 A2 ABG|~A2 cd cz c2B|FG ~A2 A2 B2G|1 A2G FE EF GA:|2 AG A2 AG A2G||
|:de ed e2 e2d|de ed cB ~A2A|^GA Bc d2 d2c|1 cd cB AE A3:|2 ~d2 cB Az A3||
|:^GA Bc dz d2c|cd cB A2 A3|ez dc dz d2c|~d2 cB Az A3:|
|:A2 A2 cz cBA|~c2 BA Az A2E|A2 ~A2 cz cBA|c2 BA AE A3:|

